packages/dnb-ui-lib/assets/icons/house_value_medium.svg

<svg width="24" height="24" viewBox="0 0 24 24" fill="none" xmlns="http://www.w3.org/2000/svg">
<path d="M3.75 14.8787V19.6287C3.75 20.4457 4.433 21.1287 5.25 21.1287H18.75C19.567 21.1287 20.25 20.4457 20.25 19.6287V14.8787M0.75 13.3787L10.939 3.18968C11.0783 3.05029 11.2437 2.93971 11.4258 2.86427C11.6078 2.78883 11.8029 2.75 12 2.75C12.1971 2.75 12.3922 2.78883 12.5742 2.86427C12.7563 2.93971 12.9217 3.05029 13.061 3.18968L23.25 13.3787M17.25 7.37869V5.12869H20.25V10.3787" stroke="black" stroke-width="1.5" stroke-linecap="round" stroke-linejoin="round"/>
<path d="M11.6462 12.8787H10.4375L9.01283 14.8858V12.8787H8V17.8787H9.01283V16.3572L9.22214 16.0787L10.37 17.8787H11.6462L9.82309 15.2858L11.6462 12.8787Z" fill="black"/>
<path d="M14.8251 17.8787H16L14.9939 15.8501C15.5949 15.6501 15.9325 15.1501 15.9325 14.4144C15.9325 13.4429 15.3383 12.8787 14.3187 12.8787H12.4348V17.8787H13.4477V15.9501H13.9541L14.8251 17.8787ZM13.4477 13.7358H14.1567C14.6698 13.7358 14.9061 13.9501 14.9061 14.4144C14.9061 14.8787 14.6698 15.0929 14.1567 15.0929H13.4477V13.7358Z" fill="black"/>
</svg>

<svg width="24" height="24" viewBox="0 0 24 24" fill="none" xmlns="http://www.w3.org/2000/svg"><path d="M3.75 14.879v4.75c0 .817.683 1.5 1.5 1.5h13.5c.817 0 1.5-.683 1.5-1.5v-4.75m-19.5-1.5l10.189-10.19a1.5 1.5 0 012.122 0L23.25 13.38m-6-6V5.13h3v5.25" stroke="#000" stroke-width="1.5" stroke-linecap="round" stroke-linejoin="round"/><path d="M11.646 12.879h-1.209l-1.424 2.007v-2.007H8v5h1.013v-1.522l.21-.278 1.147 1.8h1.276l-1.823-2.593 1.823-2.407zm3.179 5H16l-1.006-2.029c.6-.2.938-.7.938-1.436 0-.971-.594-1.535-1.613-1.535h-1.884v5h1.013V15.95h.506l.871 1.929zm-1.377-4.143h.709c.513 0 .75.214.75.678 0 .465-.237.679-.75.679h-.71v-1.357z" fill="#000"/></svg>
